X: 21172
M: 2/4
L: 1/16
K: C
V: 1 name="5"
cccc e2e2 | g2ag e2e2 | g2g2 d2d2 | e2g2 c'2BB |\
c2cd e2ef | g2ag e2e2 | g2gf d2gf | c4 z2 H|]
c2 |\
d2dd cBAG | d2d2 cBAG | d2gB dcAB | A2GG G3G |\
c2cd edef | ggag e2ee | g2ff d2g2 | c4- "^D.C."c2 |]


